build/img/sprites/93%.svg

<svg width="170" height="62" viewBox="0 0 170 62" fill="none" xmlns="http://www.w3.org/2000/svg">
<mask id="path-1-outside-1_516_5470" maskUnits="userSpaceOnUse" x="0.280273" y="0.879883" width="170" height="61" fill="black">
<rect fill="white" x="0.280273" y="0.879883" width="170" height="61"/>
<path d="M23.2003 1.87988C28.4803 1.87988 33.0403 2.91988 36.8803 4.99989C40.7736 7.07988 43.7869 10.1732 45.9203 14.2799C48.1069 18.3332 49.2003 23.3999 49.2003 29.4799C49.2003 35.9866 47.9203 41.5332 45.3603 46.1199C42.8536 50.6532 39.3603 54.1199 34.8803 56.5199C30.4536 58.9199 25.2803 60.1199 19.3603 60.1199C16.2669 60.1199 13.2803 59.7466 10.4003 58.9999C7.52027 58.3066 5.04027 57.3199 2.96027 56.0399L8.72027 44.6799C10.3203 45.7999 11.9736 46.5732 13.6803 46.9999C15.4403 47.3732 17.2269 47.5599 19.0403 47.5599C23.3603 47.5599 26.8003 46.2532 29.3603 43.6399C31.9203 41.0266 33.2003 37.2132 33.2003 32.1999C33.2003 31.2932 33.2003 30.3599 33.2003 29.3999C33.2003 28.3866 33.1203 27.3732 32.9603 26.3599L36.8803 29.6399C35.9203 31.6132 34.6669 33.2666 33.1203 34.5999C31.5736 35.9332 29.7603 36.9466 27.6803 37.6399C25.6003 38.3332 23.2269 38.6799 20.5603 38.6799C17.0403 38.6799 13.8136 37.9599 10.8803 36.5199C8.00027 35.0266 5.68027 32.9732 3.92027 30.3599C2.16027 27.6932 1.28027 24.5732 1.28027 20.9999C1.28027 17.1066 2.26694 13.7466 4.24027 10.9199C6.21361 8.03988 8.85361 5.82655 12.1603 4.27989C15.4669 2.67988 19.1469 1.87988 23.2003 1.87988ZM24.2403 13.1599C22.7469 13.1599 21.4403 13.4532 20.3203 14.0399C19.2003 14.6266 18.2936 15.4532 17.6003 16.5199C16.9603 17.5332 16.6403 18.7866 16.6403 20.2799C16.6403 22.4132 17.3336 24.1199 18.7203 25.3999C20.1603 26.6799 22.0269 27.3199 24.3203 27.3199C25.8669 27.3199 27.2269 27.0266 28.4003 26.4399C29.5736 25.8532 30.4803 25.0266 31.1203 23.9599C31.7603 22.8932 32.0803 21.6399 32.0803 20.1999C32.0803 18.8132 31.7603 17.6132 31.1203 16.5999C30.4803 15.5332 29.5736 14.7066 28.4003 14.1199C27.2269 13.4799 25.8403 13.1599 24.2403 13.1599ZM72.6122 60.1199C68.7188 60.1199 64.8255 59.6399 60.9321 58.6799C57.0921 57.7199 53.7322 56.3599 50.8521 54.5999L56.6121 42.6799C58.8521 44.1732 61.3322 45.3199 64.0522 46.1199C66.8255 46.9199 69.5188 47.3199 72.1321 47.3199C74.8521 47.3199 77.0122 46.8132 78.6122 45.7999C80.2122 44.7866 81.0122 43.3466 81.0122 41.4799C81.0122 39.8266 80.3455 38.5199 79.0122 37.5599C77.6788 36.5466 75.4921 36.0399 72.4521 36.0399H65.8121V26.0399L80.8521 9.79989L82.3721 15.2399H53.7321V2.99988H94.2122V12.9199L79.1721 29.1599L71.4121 24.7599H75.7321C82.7188 24.7599 87.9988 26.3332 91.5722 29.4799C95.1988 32.5732 97.0121 36.5732 97.0121 41.4799C97.0121 44.6799 96.1321 47.6932 94.3721 50.5199C92.6655 53.3466 90.0255 55.6666 86.4521 57.4799C82.8788 59.2399 78.2655 60.1199 72.6122 60.1199ZM109.554 58.9999L147.794 2.99988H159.314L121.074 58.9999H109.554ZM114.674 33.3199C111.954 33.3199 109.501 32.7066 107.314 31.4799C105.127 30.2532 103.421 28.4932 102.194 26.1999C100.967 23.8532 100.354 21.0532 100.354 17.7999C100.354 14.5466 100.967 11.7732 102.194 9.47989C103.421 7.18655 105.127 5.42655 107.314 4.19988C109.501 2.91988 111.954 2.27988 114.674 2.27988C117.447 2.27988 119.901 2.91988 122.034 4.19988C124.221 5.42655 125.927 7.18655 127.154 9.47989C128.434 11.7732 129.074 14.5466 129.074 17.7999C129.074 20.9999 128.434 23.7732 127.154 26.1199C125.927 28.4666 124.221 30.2532 122.034 31.4799C119.901 32.7066 117.447 33.3199 114.674 33.3199ZM114.754 25.7199C116.087 25.7199 117.181 25.1066 118.034 23.8799C118.941 22.6532 119.394 20.6266 119.394 17.7999C119.394 14.9732 118.941 12.9466 118.034 11.7199C117.181 10.4932 116.087 9.87988 114.754 9.87988C113.421 9.87988 112.274 10.4932 111.314 11.7199C110.407 12.9466 109.954 14.9732 109.954 17.7999C109.954 20.6266 110.407 22.6532 111.314 23.8799C112.274 25.1066 113.421 25.7199 114.754 25.7199ZM154.194 59.7199C151.421 59.7199 148.941 59.1066 146.754 57.8799C144.621 56.6532 142.941 54.8932 141.714 52.5999C140.487 50.2532 139.874 47.4532 139.874 44.1999C139.874 40.9466 140.487 38.1732 141.714 35.8799C142.941 33.5866 144.621 31.8266 146.754 30.5999C148.941 29.3199 151.421 28.6799 154.194 28.6799C156.967 28.6799 159.421 29.3199 161.554 30.5999C163.741 31.8266 165.447 33.5866 166.674 35.8799C167.954 38.1732 168.594 40.9466 168.594 44.1999C168.594 47.4532 167.954 50.2532 166.674 52.5999C165.447 54.8932 163.741 56.6532 161.554 57.8799C159.421 59.1066 156.967 59.7199 154.194 59.7199ZM154.194 52.1199C155.527 52.1199 156.647 51.5066 157.554 50.2799C158.461 49.0532 158.914 47.0266 158.914 44.1999C158.914 41.3732 158.461 39.3466 157.554 38.1199C156.647 36.8932 155.527 36.2799 154.194 36.2799C152.914 36.2799 151.794 36.8932 150.834 38.1199C149.927 39.3466 149.474 41.3732 149.474 44.1999C149.474 47.0266 149.927 49.0532 150.834 50.2799C151.794 51.5066 152.914 52.1199 154.194 52.1199Z"/>
</mask>
<path d="M23.2003 1.87988C28.4803 1.87988 33.0403 2.91988 36.8803 4.99989C40.7736 7.07988 43.7869 10.1732 45.9203 14.2799C48.1069 18.3332 49.2003 23.3999 49.2003 29.4799C49.2003 35.9866 47.9203 41.5332 45.3603 46.1199C42.8536 50.6532 39.3603 54.1199 34.8803 56.5199C30.4536 58.9199 25.2803 60.1199 19.3603 60.1199C16.2669 60.1199 13.2803 59.7466 10.4003 58.9999C7.52027 58.3066 5.04027 57.3199 2.96027 56.0399L8.72027 44.6799C10.3203 45.7999 11.9736 46.5732 13.6803 46.9999C15.4403 47.3732 17.2269 47.5599 19.0403 47.5599C23.3603 47.5599 26.8003 46.2532 29.3603 43.6399C31.9203 41.0266 33.2003 37.2132 33.2003 32.1999C33.2003 31.2932 33.2003 30.3599 33.2003 29.3999C33.2003 28.3866 33.1203 27.3732 32.9603 26.3599L36.8803 29.6399C35.9203 31.6132 34.6669 33.2666 33.1203 34.5999C31.5736 35.9332 29.7603 36.9466 27.6803 37.6399C25.6003 38.3332 23.2269 38.6799 20.5603 38.6799C17.0403 38.6799 13.8136 37.9599 10.8803 36.5199C8.00027 35.0266 5.68027 32.9732 3.92027 30.3599C2.16027 27.6932 1.28027 24.5732 1.28027 20.9999C1.28027 17.1066 2.26694 13.7466 4.24027 10.9199C6.21361 8.03988 8.85361 5.82655 12.1603 4.27989C15.4669 2.67988 19.1469 1.87988 23.2003 1.87988ZM24.2403 13.1599C22.7469 13.1599 21.4403 13.4532 20.3203 14.0399C19.2003 14.6266 18.2936 15.4532 17.6003 16.5199C16.9603 17.5332 16.6403 18.7866 16.6403 20.2799C16.6403 22.4132 17.3336 24.1199 18.7203 25.3999C20.1603 26.6799 22.0269 27.3199 24.3203 27.3199C25.8669 27.3199 27.2269 27.0266 28.4003 26.4399C29.5736 25.8532 30.4803 25.0266 31.1203 23.9599C31.7603 22.8932 32.0803 21.6399 32.0803 20.1999C32.0803 18.8132 31.7603 17.6132 31.1203 16.5999C30.4803 15.5332 29.5736 14.7066 28.4003 14.1199C27.2269 13.4799 25.8403 13.1599 24.2403 13.1599ZM72.6122 60.1199C68.7188 60.1199 64.8255 59.6399 60.9321 58.6799C57.0921 57.7199 53.7322 56.3599 50.8521 54.5999L56.6121 42.6799C58.8521 44.1732 61.3322 45.3199 64.0522 46.1199C66.8255 46.9199 69.5188 47.3199 72.1321 47.3199C74.8521 47.3199 77.0122 46.8132 78.6122 45.7999C80.2122 44.7866 81.0122 43.3466 81.0122 41.4799C81.0122 39.8266 80.3455 38.5199 79.0122 37.5599C77.6788 36.5466 75.4921 36.0399 72.4521 36.0399H65.8121V26.0399L80.8521 9.79989L82.3721 15.2399H53.7321V2.99988H94.2122V12.9199L79.1721 29.1599L71.4121 24.7599H75.7321C82.7188 24.7599 87.9988 26.3332 91.5722 29.4799C95.1988 32.5732 97.0121 36.5732 97.0121 41.4799C97.0121 44.6799 96.1321 47.6932 94.3721 50.5199C92.6655 53.3466 90.0255 55.6666 86.4521 57.4799C82.8788 59.2399 78.2655 60.1199 72.6122 60.1199ZM109.554 58.9999L147.794 2.99988H159.314L121.074 58.9999H109.554ZM114.674 33.3199C111.954 33.3199 109.501 32.7066 107.314 31.4799C105.127 30.2532 103.421 28.4932 102.194 26.1999C100.967 23.8532 100.354 21.0532 100.354 17.7999C100.354 14.5466 100.967 11.7732 102.194 9.47989C103.421 7.18655 105.127 5.42655 107.314 4.19988C109.501 2.91988 111.954 2.27988 114.674 2.27988C117.447 2.27988 119.901 2.91988 122.034 4.19988C124.221 5.42655 125.927 7.18655 127.154 9.47989C128.434 11.7732 129.074 14.5466 129.074 17.7999C129.074 20.9999 128.434 23.7732 127.154 26.1199C125.927 28.4666 124.221 30.2532 122.034 31.4799C119.901 32.7066 117.447 33.3199 114.674 33.3199ZM114.754 25.7199C116.087 25.7199 117.181 25.1066 118.034 23.8799C118.941 22.6532 119.394 20.6266 119.394 17.7999C119.394 14.9732 118.941 12.9466 118.034 11.7199C117.181 10.4932 116.087 9.87988 114.754 9.87988C113.421 9.87988 112.274 10.4932 111.314 11.7199C110.407 12.9466 109.954 14.9732 109.954 17.7999C109.954 20.6266 110.407 22.6532 111.314 23.8799C112.274 25.1066 113.421 25.7199 114.754 25.7199ZM154.194 59.7199C151.421 59.7199 148.941 59.1066 146.754 57.8799C144.621 56.6532 142.941 54.8932 141.714 52.5999C140.487 50.2532 139.874 47.4532 139.874 44.1999C139.874 40.9466 140.487 38.1732 141.714 35.8799C142.941 33.5866 144.621 31.8266 146.754 30.5999C148.941 29.3199 151.421 28.6799 154.194 28.6799C156.967 28.6799 159.421 29.3199 161.554 30.5999C163.741 31.8266 165.447 33.5866 166.674 35.8799C167.954 38.1732 168.594 40.9466 168.594 44.1999C168.594 47.4532 167.954 50.2532 166.674 52.5999C165.447 54.8932 163.741 56.6532 161.554 57.8799C159.421 59.1066 156.967 59.7199 154.194 59.7199ZM154.194 52.1199C155.527 52.1199 156.647 51.5066 157.554 50.2799C158.461 49.0532 158.914 47.0266 158.914 44.1999C158.914 41.3732 158.461 39.3466 157.554 38.1199C156.647 36.8932 155.527 36.2799 154.194 36.2799C152.914 36.2799 151.794 36.8932 150.834 38.1199C149.927 39.3466 149.474 41.3732 149.474 44.1999C149.474 47.0266 149.927 49.0532 150.834 50.2799C151.794 51.5066 152.914 52.1199 154.194 52.1199Z" stroke="#78213A" stroke-width="2" mask="url(#path-1-outside-1_516_5470)"/>
</svg>

<svg width="170" height="62" viewBox="0 0 170 62" fill="none" xmlns="http://www.w3.org/2000/svg"><mask id="path-1-outside-1_516_5470" maskUnits="userSpaceOnUse" x=".28" y=".88" width="170" height="61" fill="#000"><path fill="#fff" d="M.28.88h170v61H.28z"/><path d="M23.2 1.88c5.28 0 9.84 1.04 13.68 3.12 3.894 2.08 6.907 5.173 9.04 9.28 2.187 4.053 3.28 9.12 3.28 15.2 0 6.507-1.28 12.053-3.84 16.64-2.506 4.533-6 8-10.48 10.4-4.426 2.4-9.6 3.6-15.52 3.6-3.093 0-6.08-.373-8.96-1.12-2.88-.693-5.36-1.68-7.44-2.96l5.76-11.36c1.6 1.12 3.254 1.893 4.96 2.32 1.76.373 3.547.56 5.36.56 4.32 0 7.76-1.307 10.32-3.92 2.56-2.613 3.84-6.427 3.84-11.44v-2.8c0-1.013-.08-2.027-.24-3.04l3.92 3.28c-.96 1.973-2.213 3.627-3.76 4.96-1.546 1.333-3.36 2.347-5.44 3.04-2.08.693-4.453 1.04-7.12 1.04-3.52 0-6.746-.72-9.68-2.16-2.88-1.493-5.2-3.547-6.96-6.16-1.76-2.667-2.64-5.787-2.64-9.36 0-3.893.987-7.253 2.96-10.08 1.974-2.88 4.614-5.093 7.92-6.64 3.307-1.6 6.987-2.4 11.04-2.4zm1.04 11.28c-1.493 0-2.8.293-3.92.88a7.153 7.153 0 00-2.72 2.48c-.64 1.013-.96 2.267-.96 3.76 0 2.133.694 3.84 2.08 5.12 1.44 1.28 3.307 1.92 5.6 1.92 1.547 0 2.907-.293 4.08-.88 1.174-.587 2.08-1.413 2.72-2.48.64-1.067.96-2.32.96-3.76 0-1.387-.32-2.587-.96-3.6-.64-1.067-1.546-1.893-2.72-2.48-1.173-.64-2.56-.96-4.16-.96zm48.372 46.96a48.63 48.63 0 01-11.68-1.44c-3.84-.96-7.2-2.32-10.08-4.08l5.76-11.92c2.24 1.493 4.72 2.64 7.44 3.44 2.773.8 5.467 1.2 8.08 1.2 2.72 0 4.88-.507 6.48-1.52 1.6-1.013 2.4-2.453 2.4-4.32 0-1.653-.666-2.96-2-3.92-1.333-1.013-3.52-1.52-6.56-1.52h-6.64v-10L80.852 9.8l1.52 5.44h-28.64V3h40.48v9.92l-15.04 16.24-7.76-4.4h4.32c6.987 0 12.267 1.573 15.84 4.72 3.627 3.093 5.44 7.093 5.44 12 0 3.2-.88 6.213-2.64 9.04-1.707 2.827-4.347 5.147-7.92 6.96-3.573 1.76-8.186 2.64-13.84 2.64zM109.554 59l38.24-56h11.52l-38.24 56h-11.52zm5.12-25.68c-2.72 0-5.173-.613-7.36-1.84-2.187-1.227-3.893-2.987-5.12-5.28-1.227-2.347-1.84-5.147-1.84-8.4s.613-6.027 1.84-8.32 2.933-4.053 5.12-5.28c2.187-1.28 4.64-1.92 7.36-1.92 2.773 0 5.227.64 7.36 1.92 2.187 1.227 3.893 2.987 5.12 5.28 1.28 2.293 1.92 5.067 1.92 8.32 0 3.2-.64 5.973-1.92 8.32-1.227 2.347-2.933 4.133-5.12 5.36-2.133 1.227-4.587 1.84-7.36 1.84zm.08-7.6c1.333 0 2.427-.613 3.28-1.84.907-1.227 1.36-3.253 1.36-6.08s-.453-4.853-1.36-6.08c-.853-1.227-1.947-1.84-3.28-1.84-1.333 0-2.48.613-3.44 1.84-.907 1.227-1.36 3.253-1.36 6.08s.453 4.853 1.36 6.08c.96 1.227 2.107 1.84 3.44 1.84zm39.44 34c-2.773 0-5.253-.613-7.44-1.84-2.133-1.227-3.813-2.987-5.04-5.28-1.227-2.347-1.84-5.147-1.84-8.4s.613-6.027 1.84-8.32 2.907-4.053 5.04-5.28c2.187-1.28 4.667-1.92 7.44-1.92 2.773 0 5.227.64 7.36 1.92 2.187 1.227 3.893 2.987 5.12 5.28 1.28 2.293 1.92 5.067 1.92 8.32s-.64 6.053-1.92 8.4c-1.227 2.293-2.933 4.053-5.12 5.28-2.133 1.227-4.587 1.84-7.36 1.84zm0-7.6c1.333 0 2.453-.613 3.36-1.84s1.36-3.253 1.36-6.08-.453-4.853-1.36-6.08c-.907-1.227-2.027-1.84-3.36-1.84-1.28 0-2.4.613-3.36 1.84-.907 1.227-1.36 3.253-1.36 6.08s.453 4.853 1.36 6.08c.96 1.227 2.08 1.84 3.36 1.84z"/></mask><path d="M23.2 1.88c5.28 0 9.84 1.04 13.68 3.12 3.894 2.08 6.907 5.173 9.04 9.28 2.187 4.053 3.28 9.12 3.28 15.2 0 6.507-1.28 12.053-3.84 16.64-2.506 4.533-6 8-10.48 10.4-4.426 2.4-9.6 3.6-15.52 3.6-3.093 0-6.08-.373-8.96-1.12-2.88-.693-5.36-1.68-7.44-2.96l5.76-11.36c1.6 1.12 3.254 1.893 4.96 2.32 1.76.373 3.547.56 5.36.56 4.32 0 7.76-1.307 10.32-3.92 2.56-2.613 3.84-6.427 3.84-11.44v-2.8c0-1.013-.08-2.027-.24-3.04l3.92 3.28c-.96 1.973-2.213 3.627-3.76 4.96-1.546 1.333-3.36 2.347-5.44 3.04-2.08.693-4.453 1.04-7.12 1.04-3.52 0-6.746-.72-9.68-2.16-2.88-1.493-5.2-3.547-6.96-6.16-1.76-2.667-2.64-5.787-2.64-9.36 0-3.893.987-7.253 2.96-10.08 1.974-2.88 4.614-5.093 7.92-6.64 3.307-1.6 6.987-2.4 11.04-2.4zm1.04 11.28c-1.493 0-2.8.293-3.92.88a7.153 7.153 0 00-2.72 2.48c-.64 1.013-.96 2.267-.96 3.76 0 2.133.694 3.84 2.08 5.12 1.44 1.28 3.307 1.92 5.6 1.92 1.547 0 2.907-.293 4.08-.88 1.174-.587 2.08-1.413 2.72-2.48.64-1.067.96-2.32.96-3.76 0-1.387-.32-2.587-.96-3.6-.64-1.067-1.546-1.893-2.72-2.48-1.173-.64-2.56-.96-4.16-.96zm48.372 46.96a48.63 48.63 0 01-11.68-1.44c-3.84-.96-7.2-2.32-10.08-4.08l5.76-11.92c2.24 1.493 4.72 2.64 7.44 3.44 2.773.8 5.467 1.2 8.08 1.2 2.72 0 4.88-.507 6.48-1.52 1.6-1.013 2.4-2.453 2.4-4.32 0-1.653-.666-2.96-2-3.92-1.333-1.013-3.52-1.52-6.56-1.52h-6.64v-10L80.852 9.8l1.52 5.44h-28.64V3h40.48v9.92l-15.04 16.24-7.76-4.4h4.32c6.987 0 12.267 1.573 15.84 4.72 3.627 3.093 5.44 7.093 5.44 12 0 3.2-.88 6.213-2.64 9.04-1.707 2.827-4.347 5.147-7.92 6.96-3.573 1.76-8.186 2.64-13.84 2.64zM109.554 59l38.24-56h11.52l-38.24 56h-11.52zm5.12-25.68c-2.72 0-5.173-.613-7.36-1.84-2.187-1.227-3.893-2.987-5.12-5.28-1.227-2.347-1.84-5.147-1.84-8.4s.613-6.027 1.84-8.32 2.933-4.053 5.12-5.28c2.187-1.28 4.64-1.92 7.36-1.92 2.773 0 5.227.64 7.36 1.92 2.187 1.227 3.893 2.987 5.12 5.28 1.28 2.293 1.92 5.067 1.92 8.32 0 3.2-.64 5.973-1.92 8.32-1.227 2.347-2.933 4.133-5.12 5.36-2.133 1.227-4.587 1.84-7.36 1.84zm.08-7.6c1.333 0 2.427-.613 3.28-1.84.907-1.227 1.36-3.253 1.36-6.08s-.453-4.853-1.36-6.08c-.853-1.227-1.947-1.84-3.28-1.84-1.333 0-2.48.613-3.44 1.84-.907 1.227-1.36 3.253-1.36 6.08s.453 4.853 1.36 6.08c.96 1.227 2.107 1.84 3.44 1.84zm39.44 34c-2.773 0-5.253-.613-7.44-1.84-2.133-1.227-3.813-2.987-5.04-5.28-1.227-2.347-1.84-5.147-1.84-8.4s.613-6.027 1.84-8.32 2.907-4.053 5.04-5.28c2.187-1.28 4.667-1.92 7.44-1.92 2.773 0 5.227.64 7.36 1.92 2.187 1.227 3.893 2.987 5.12 5.28 1.28 2.293 1.92 5.067 1.92 8.32s-.64 6.053-1.92 8.4c-1.227 2.293-2.933 4.053-5.12 5.28-2.133 1.227-4.587 1.84-7.36 1.84zm0-7.6c1.333 0 2.453-.613 3.36-1.84s1.36-3.253 1.36-6.08-.453-4.853-1.36-6.08c-.907-1.227-2.027-1.84-3.36-1.84-1.28 0-2.4.613-3.36 1.84-.907 1.227-1.36 3.253-1.36 6.08s.453 4.853 1.36 6.08c.96 1.227 2.08 1.84 3.36 1.84z" stroke="#78213A" stroke-width="2" mask="url(#path-1-outside-1_516_5470)"/></svg>
